app/result/img/sl-icon-2.svg

<svg width="34" height="25" viewBox="0 0 34 25" fill="none" xmlns="http://www.w3.org/2000/svg">
<path d="M32.5872 13.0519C31.8919 12.5811 31.022 12.5067 30.2606 12.8529C29.0566 13.4003 27.7156 13.8573 26.2775 14.2173V8.77393C26.2775 7.58657 25.0153 6.55785 22.6239 5.79206C22.6239 5.79206 22.6229 2.88277 22.6212 2.86531C22.565 1.57585 20.481 0.87369 18.7277 0.511051C18.5019 0.464331 18.2732 0.588734 18.1792 0.806918C18.064 1.06295 18.171 1.36728 18.4181 1.48664C18.4872 1.51999 18.5593 1.53527 18.6312 1.53465C21.0812 2.05559 21.6366 2.72317 21.6366 2.91844C21.6366 3.08554 21.23 3.6281 19.3732 4.12516C17.714 4.56931 15.4999 4.81389 13.1387 4.81389C10.7775 4.81389 8.5633 4.56931 6.90419 4.12516C5.04737 3.6281 4.64072 3.08554 4.64072 2.91844C4.64072 2.75134 5.04737 2.20878 6.90419 1.71171C8.5633 1.26757 10.7775 1.02299 13.1387 1.02299C14.2106 1.02299 15.2591 1.0738 16.2547 1.17399C16.526 1.20107 16.7673 0.995433 16.7937 0.714297C16.82 0.433093 16.6214 0.183059 16.3501 0.155778C15.3229 0.0523807 14.2424 0 13.1387 0C10.6965 0 8.39469 0.256105 6.65726 0.721254C4.66415 1.25481 3.65354 1.99407 3.65354 2.9185V5.79234C1.26201 6.55799 0 7.58603 0 8.77393V17.26C0 17.5691 0.0735776 17.8746 0.212704 18.1431C0.86819 19.4081 2.03155 20.5636 3.67033 21.5772C3.74963 21.6262 3.83676 21.6496 3.92285 21.6496C4.09093 21.6496 4.25473 21.5606 4.34713 21.4001C4.48685 21.1575 4.41031 20.8435 4.17622 20.6987C3.87375 20.5117 3.58905 20.318 3.32119 20.1193V15.751C3.32119 15.4685 3.10026 15.2394 2.8276 15.2394C2.55495 15.2394 2.33402 15.4685 2.33402 15.751V19.2866C1.7937 18.763 1.37066 18.2154 1.08234 17.659C1.02015 17.5388 0.987177 17.4008 0.987177 17.26V8.77393C0.987177 8.27843 1.70077 7.53726 3.65367 6.86634V7.89942C3.65367 8.82385 4.66422 9.56318 6.65739 10.0967C8.39482 10.5618 10.6967 10.8179 13.1388 10.8179C15.5809 10.8179 17.8828 10.5618 19.6202 10.0967C21.6133 9.56312 22.6239 8.82385 22.6239 7.89942V6.86641C24.5779 7.53794 25.2904 8.28 25.2904 8.77393C25.2904 9.63848 23.4245 10.4764 21.8266 10.9311C21.5638 11.006 21.4092 11.2875 21.4814 11.5599C21.5416 11.787 21.7403 11.9361 21.9571 11.9361C22.0004 11.9361 22.0443 11.9302 22.0881 11.9177C23.5119 11.5124 24.586 11.0242 25.2904 10.4698V14.4459C24.7471 14.5618 24.1918 14.6643 23.6265 14.7531V13.8299C23.6265 13.5474 23.4056 13.3183 23.1329 13.3183C22.8603 13.3183 22.6393 13.5474 22.6393 13.8299V14.8932C21.8113 14.9979 20.9648 15.0736 20.1056 15.1197V14.4949C20.1056 14.2124 19.8846 13.9833 19.612 13.9833C19.3393 13.9833 19.1184 14.2124 19.1184 14.4949V15.1593C18.788 15.1681 18.4563 15.1731 18.1233 15.1731C17.63 15.1731 17.1388 15.1628 16.6505 15.1432V14.9041C16.6505 14.6216 16.4295 14.3926 16.1569 14.3926C15.8842 14.3926 15.6633 14.6216 15.6633 14.9041V15.0901C12.329 14.8651 9.17917 14.1862 6.60632 13.1224C6.36999 13.0247 6.39711 12.8169 6.41975 12.7321C6.44304 12.645 6.52524 12.4469 6.78296 12.49C8.71033 12.813 10.9082 12.9837 13.1389 12.9837C15.5462 12.9837 17.894 12.7867 19.9283 12.414C20.1968 12.3648 20.3759 12.0994 20.3285 11.8212C20.281 11.543 20.025 11.3576 19.7565 11.4065C17.7779 11.769 15.4896 11.9606 13.1389 11.9606C10.96 11.9606 8.81668 11.7944 6.94051 11.48C6.25791 11.3655 5.65277 11.7684 5.46837 12.4593C5.46225 12.4823 5.4581 12.5052 5.45304 12.5281C4.71634 12.0881 3.79708 11.4163 3.23682 10.5558C3.0844 10.3215 2.77752 10.2598 2.55159 10.4178C2.32559 10.5759 2.26603 10.8938 2.41858 11.128C3.62702 12.9841 6.10628 14.0178 6.23975 14.0723C6.24001 14.0724 6.24021 14.0725 6.24047 14.0726C9.55278 15.442 13.7728 16.1961 18.1233 16.1961C21.3769 16.1961 24.524 15.7808 27.2883 15.0043V22.7504C25.947 23.1422 24.5018 23.4458 22.9862 23.6527V19.5665C22.9862 19.284 22.7652 19.055 22.4926 19.055C22.2199 19.055 21.999 19.284 21.999 19.5665V23.7727C20.7422 23.907 19.4444 23.9769 18.1233 23.9769C18.1054 23.9769 18.0877 23.9767 18.0699 23.9767V19.7711C18.0699 19.4886 17.849 19.2596 17.5763 19.2596C17.3036 19.2596 17.0827 19.4886 17.0827 19.7711V23.9617C15.7419 23.9241 14.4249 23.814 13.1537 23.6354V19.2976C13.1537 19.0151 12.9328 18.786 12.6602 18.786C12.3875 18.786 12.1666 19.0151 12.1666 19.2976V23.4815C10.7829 23.2437 9.46334 22.9227 8.23753 22.5243V18.1381C8.23753 17.8556 8.0166 17.6266 7.74395 17.6266C7.47129 17.6266 7.25036 17.8556 7.25036 18.1381V22.179C6.88444 22.0415 6.52794 21.8971 6.18289 21.7449C5.93208 21.6344 5.64218 21.7554 5.53543 22.0153C5.42869 22.2753 5.5455 22.5757 5.79638 22.6863C9.18016 24.1783 13.558 25 18.1233 25C23.7323 25 28.9655 23.7736 32.4812 21.6352C33.2303 21.1794 33.6957 20.3394 33.6957 19.443V15.1751C33.6957 14.3155 33.2813 13.5219 32.5872 13.0519ZM20.3359 8.80012V7.71527C20.3359 7.43277 20.1149 7.20374 19.8423 7.20374C19.5696 7.20374 19.3487 7.43277 19.3487 7.71527V9.11242C18.6483 9.29848 17.8499 9.44894 16.9841 9.56093V8.0878C16.9841 7.8053 16.7631 7.57627 16.4905 7.57627C16.2178 7.57627 15.9969 7.8053 15.9969 8.0878V9.66903C15.2414 9.73772 14.4478 9.77918 13.6323 9.79105V8.02423C13.6323 7.74173 13.4114 7.51271 13.1387 7.51271C12.8661 7.51271 12.6451 7.74173 12.6451 8.02423V9.79105C11.8296 9.77918 11.036 9.73772 10.2805 9.66903V7.74262C10.2805 7.46012 10.0596 7.23109 9.78694 7.23109C9.51428 7.23109 9.29335 7.46012 9.29335 7.74262V9.56093C8.4276 9.44894 7.62917 9.29848 6.9288 9.11242V7.02498C6.9288 6.74248 6.70787 6.51345 6.43521 6.51345C6.16255 6.51345 5.94162 6.74248 5.94162 7.02498V8.80019C4.89943 8.40358 4.64072 8.03255 4.64072 7.89949V4.31886C5.13161 4.62101 5.80408 4.8872 6.65726 5.11555C8.39469 5.58063 10.6965 5.8368 13.1387 5.8368C15.5808 5.8368 17.8827 5.58063 19.6201 5.11555C20.4732 4.8872 21.1457 4.62101 21.6366 4.31886V7.89942C21.6368 8.03249 21.378 8.40358 20.3359 8.80012ZM32.7085 19.443C32.7085 19.9781 32.4299 20.4801 31.9815 20.7528C30.9042 21.408 29.6543 21.9733 28.2754 22.44V14.7069C29.1133 14.4357 29.9101 14.1295 30.6571 13.7898C31.119 13.5798 31.6257 13.6231 32.0473 13.9084C32.4675 14.1929 32.7084 14.6546 32.7084 15.1751V19.443H32.7085Z" fill="#BE1622"/>
<path d="M30.4919 15.5308C29.709 15.5308 29.1184 16.4735 29.1184 17.7236C29.1184 18.9737 29.709 19.9164 30.4919 19.9164C31.2749 19.9164 31.8654 18.9737 31.8654 17.7236C31.8654 16.4735 31.275 15.5308 30.4919 15.5308ZM30.4929 18.8934C30.4027 18.8779 30.1056 18.4831 30.1056 17.7236C30.1056 16.9641 30.4027 16.5693 30.491 16.5538C30.5812 16.5693 30.8782 16.9641 30.8782 17.7236C30.8782 18.4831 30.5812 18.878 30.4929 18.8934Z" fill="#BE1622"/>
<path d="M8.89519 1.89484C7.60502 2.09201 6.74571 2.36189 6.74571 3.03834C6.74571 3.71478 7.60502 3.98467 8.89519 4.18184C10.0326 4.35563 11.5396 4.45138 13.1387 4.45138C14.7378 4.45138 16.2449 4.35569 17.3823 4.18184C18.6725 3.98467 19.5318 3.71478 19.5318 3.03834C19.5318 2.36189 18.6725 2.09201 17.3823 1.89484C16.2449 1.72105 14.7378 1.62529 13.1387 1.62529C11.5396 1.62529 10.0326 1.72105 8.89519 1.89484ZM17.9466 3.03834C17.0885 3.23149 15.4695 3.42833 13.1387 3.42833C10.8079 3.42833 9.18898 3.23149 8.33092 3.03834C9.18898 2.84512 10.8079 2.64835 13.1387 2.64835C15.4695 2.64835 17.0885 2.84519 17.9466 3.03834Z" fill="#BE1622"/>
</svg>

<svg width="34" height="25" viewBox="0 0 34 25" fill="none" xmlns="http://www.w3.org/2000/svg"><path d="M32.587 13.052a2.371 2.371 0 0 0-2.326-.2 23.37 23.37 0 0 1-3.983 1.365V8.774c0-1.187-1.263-2.216-3.654-2.982 0 0-.001-2.91-.003-2.927-.056-1.29-2.14-1.991-3.893-2.354a.493.493 0 0 0-.549.296.52.52 0 0 0 .24.68c.068.033.14.048.212.048 2.45.52 3.006 1.188 3.006 1.383 0 .168-.407.71-2.264 1.207-1.659.444-3.873.689-6.234.689-2.361 0-4.576-.245-6.235-.689-1.857-.497-2.263-1.04-2.263-1.207 0-.167.406-.71 2.263-1.206 1.66-.444 3.873-.689 6.235-.689 1.072 0 2.12.05 3.116.151a.499.499 0 0 0 .539-.46.507.507 0 0 0-.444-.558A32.22 32.22 0 0 0 13.14 0c-2.442 0-4.744.256-6.482.721-1.993.534-3.003 1.273-3.003 2.197v2.874C1.262 6.558 0 7.586 0 8.774v8.486c0 .31.074.615.213.883.655 1.265 1.819 2.42 3.457 3.434.08.05.167.073.253.073a.49.49 0 0 0 .424-.25.522.522 0 0 0-.17-.701c-.303-.187-.588-.381-.856-.58v-4.368a.503.503 0 0 0-.493-.512.503.503 0 0 0-.494.512v3.536c-.54-.524-.963-1.072-1.252-1.628a.871.871 0 0 1-.095-.399V8.774c0-.496.714-1.237 2.667-1.908V7.9c0 .925 1.01 1.664 3.003 2.198 1.738.465 4.04.72 6.482.72s4.744-.255 6.481-.72c1.993-.534 3.004-1.273 3.004-2.198V6.866c1.954.672 2.666 1.414 2.666 1.908 0 .864-1.866 1.702-3.463 2.157a.514.514 0 0 0-.346.629.497.497 0 0 0 .607.358c1.424-.406 2.498-.894 3.202-1.448v3.976c-.543.116-1.098.218-1.663.307v-.923a.503.503 0 0 0-.494-.512.503.503 0 0 0-.494.512v1.063c-.828.105-1.674.18-2.533.227v-.625a.503.503 0 0 0-.494-.512.503.503 0 0 0-.494.512v.664a37.368 37.368 0 0 1-2.467-.016v-.239a.503.503 0 0 0-.494-.511.503.503 0 0 0-.494.511v.186c-3.334-.225-6.484-.904-9.057-1.968-.236-.097-.209-.305-.186-.39.023-.087.105-.285.363-.242 1.927.323 4.125.494 6.356.494 2.407 0 4.755-.197 6.79-.57a.51.51 0 0 0 .4-.593.496.496 0 0 0-.573-.415c-1.978.363-4.266.555-6.617.555-2.179 0-4.322-.167-6.198-.481-.683-.114-1.288.288-1.473.98-.006.022-.01.045-.015.068-.737-.44-1.656-1.112-2.216-1.972a.483.483 0 0 0-.685-.138.523.523 0 0 0-.133.71c1.208 1.856 3.687 2.89 3.82 2.944h.001c3.313 1.37 7.533 2.124 11.883 2.124 3.254 0 6.401-.415 9.165-1.192v7.746a29.742 29.742 0 0 1-4.302.903v-4.086a.503.503 0 0 0-.493-.512.503.503 0 0 0-.494.512v4.206a36.538 36.538 0 0 1-3.876.204h-.053V19.77a.503.503 0 0 0-.494-.511.503.503 0 0 0-.493.511v4.19a35.444 35.444 0 0 1-3.93-.326v-4.337a.503.503 0 0 0-.493-.512.503.503 0 0 0-.493.512v4.184a28.209 28.209 0 0 1-3.93-.958v-4.386a.503.503 0 0 0-.493-.511.503.503 0 0 0-.494.511v4.041a20.61 20.61 0 0 1-1.067-.434.488.488 0 0 0-.648.27c-.106.26.01.56.261.671C9.18 24.178 13.558 25 18.123 25c5.61 0 10.842-1.226 14.358-3.365a2.573 2.573 0 0 0 1.215-2.192v-4.268c0-.86-.415-1.653-1.109-2.123zM20.336 8.8V7.715a.503.503 0 0 0-.494-.511.503.503 0 0 0-.493.511v1.397c-.7.186-1.5.337-2.365.449V8.088a.503.503 0 0 0-.494-.512.503.503 0 0 0-.493.512v1.581c-.756.069-1.55.11-2.365.122V8.024a.503.503 0 0 0-.493-.511.503.503 0 0 0-.494.511v1.767a31.232 31.232 0 0 1-2.364-.122V7.743a.503.503 0 0 0-.494-.512.503.503 0 0 0-.494.512V9.56a18.617 18.617 0 0 1-2.364-.449V7.025a.503.503 0 0 0-.494-.512.503.503 0 0 0-.493.512V8.8c-1.043-.396-1.301-.767-1.301-.9V4.318c.49.302 1.163.568 2.016.797 1.738.465 4.04.72 6.482.72s4.744-.255 6.481-.72c.853-.229 1.526-.495 2.017-.797v3.58c0 .133-.259.505-1.301.901zm12.373 10.643c0 .535-.28 1.037-.728 1.31-1.077.655-2.327 1.22-3.706 1.687v-7.733a22.49 22.49 0 0 0 2.382-.917c.462-.21.969-.167 1.39.118.42.285.661.747.661 1.267v4.268z" fill="#BE1622"/><path d="M30.492 15.53c-.783 0-1.374.944-1.374 2.194s.591 2.192 1.374 2.192c.783 0 1.373-.942 1.373-2.192 0-1.25-.59-2.193-1.373-2.193zm0 3.363c-.09-.015-.386-.41-.386-1.17 0-.759.297-1.154.385-1.17.09.016.387.411.387 1.17 0 .76-.297 1.155-.385 1.17zM8.895 1.895c-1.29.197-2.15.467-2.15 1.143 0 .677.86.947 2.15 1.144 1.138.174 2.645.27 4.244.27 1.599 0 3.106-.096 4.243-.27 1.29-.197 2.15-.467 2.15-1.144 0-.676-.86-.946-2.15-1.143-1.137-.174-2.644-.27-4.243-.27-1.6 0-3.106.096-4.244.27zm9.052 1.143c-.858.193-2.477.39-4.808.39s-3.95-.197-4.808-.39c.858-.193 2.477-.39 4.808-.39 2.33 0 3.95.197 4.808.39z" fill="#BE1622"/></svg>
